X:143
T:Prince Condee. VWMLa.143
%%VWML:Anon2-3049-p84-0
F:http://www.vwml.org/record/Anon2/3049/p84
S:Anon. MS, late 18thC, Vaughan Williams Mem. Library
N:I un-dotted the last note in the B, C & D musics,
N:and added the rests.PJH.
O:England;Yorkshire
Z:vmp/efdss.Simon Wilson. Reviewed PJH 2008.
M:6/8
L:1/8
Q:3/8=120
K:Bb
b|f2d B2d|c2AF2F|G2A BAG|FGED2b|\
f2d B2d|c2AF2F|GAB (c/d/)e.c|([E3c3] [D2B2]):|
|:F/E/|DFB DFB|EGB EGB|DFB BAG|FGE D2F/E/|\
DFB DFB|EGB EGB|Fed cBA|c3B2:|
|:z|B6|c2d e2d|g2f e2d|cdB AGF|\
c3- c2B|A2c f2a|(g/a/b).a gf=e|f3-f2:|
|:z|Bdf fdB|Bdg gab|Bdf fdB|cAF F2B|\
Bdf fdB|Bdg gab|fge dec|(c3 B2):|
